flaticon/army-badges/radar.svg

<svg xmlns="http://www.w3.org/2000/svg" width="32" height="32" viewBox="0 0 24 24">
    <path d="M 12 0 C 5.398438 0 0 5.359375 0 12 C 0 18.640625 5.398438 24 12 24 C 18.601562 24 24 18.601562 24 12 C 24 5.398438 18.601562 0 12 0 Z M 12 23.199219 C 5.839844 23.199219 0.800781 18.160156 0.800781 12 C 0.800781 5.839844 5.839844 0.800781 12 0.800781 C 18.160156 0.800781 23.199219 5.839844 23.199219 12 C 23.199219 18.160156 18.160156 23.199219 12 23.199219 Z M 12 23.199219"/>
    <path d="M12 4C7.601562 4 4 7.601562 4 12 4 12.441406 4.039062 12.878906 4.121094 13.28125 4.121094 13.480469 4.359375 13.640625 4.558594 13.601562 4.761719 13.601562 4.921875 13.359375 4.878906 13.160156 4.839844 12.800781 4.800781 12.398438 4.800781 12 4.800781 8.039062 8.039062 4.800781 12 4.800781 15.960938 4.800781 19.199219 8.039062 19.199219 12 19.199219 15.960938 15.960938 19.199219 12 19.199219 10.210938 19.199219 8.527344 18.574219 7.203125 17.355469L9.453125 15.105469C10.167969 15.691406 11.054688 16 12 16 14.199219 16 16 14.199219 16 12 16 9.800781 14.199219 8 12 8 9.800781 8 8 9.800781 8 12 8 12.238281 8 12.441406 8.078125 12.640625 8.078125 12.839844 8.320312 13 8.519531 12.960938 8.71875 12.960938 8.878906 12.71875 8.839844 12.519531 8.800781 12.359375 8.800781 12.160156 8.800781 12 8.800781 10.238281 10.238281 8.800781 12 8.800781 13.761719 8.800781 15.199219 10.238281 15.199219 12 15.199219 13.761719 13.761719 15.199219 12 15.199219 11.257812 15.199219 10.574219 14.972656 10.019531 14.542969L11.183594 13.375C11.425781 13.519531 11.703125 13.601562 12 13.601562 12.878906 13.601562 13.601562 12.878906 13.601562 12 13.601562 11.121094 12.878906 10.398438 12 10.398438 11.121094 10.398438 10.398438 11.121094 10.398438 12 10.398438 12.296875 10.480469 12.574219 10.625 12.816406L9.160156 14.28125 6.359375 17.078125 4.921875 18.519531C4.761719 18.679688 4.761719 18.917969 4.921875 19.078125 5 19.160156 5.082031 19.199219 5.199219 19.199219 5.320312 19.199219 5.398438 19.160156 5.480469 19.078125L6.644531 17.917969C8.09375 19.261719 10.011719 20 12 20 16.398438 20 20 16.441406 20 12 20 7.601562 16.398438 4 12 4zM12 11.199219C12.441406 11.199219 12.800781 11.558594 12.800781 12 12.800781 12.441406 12.441406 12.800781 12 12.800781 11.800781 12.800781 11.617188 12.726562 11.476562 12.605469 11.464844 12.589844 11.453125 12.574219 11.441406 12.558594 11.425781 12.546875 11.410156 12.535156 11.394531 12.523438 11.273438 12.382812 11.199219 12.199219 11.199219 12 11.199219 11.558594 11.558594 11.199219 12 11.199219zM4.398438 7.601562C4.398438 7.160156 4.039062 6.800781 3.601562 6.800781 3.160156 6.800781 2.800781 7.160156 2.800781 7.601562 2.800781 8.039062 3.160156 8.398438 3.601562 8.398438 4.039062 8.398438 4.398438 8.039062 4.398438 7.601562zM4.398438 7.601562"/>
    <path d="M15.199219 15.601562C15.199219 16.039062 15.558594 16.398438 16 16.398438 16.441406 16.398438 16.800781 16.039062 16.800781 15.601562 16.800781 15.160156 16.441406 14.800781 16 14.800781 15.558594 14.800781 15.199219 15.160156 15.199219 15.601562zM17.199219 5.199219C17.640625 5.199219 18 4.839844 18 4.398438 18 3.960938 17.640625 3.601562 17.199219 3.601562 16.761719 3.601562 16.398438 3.960938 16.398438 4.398438 16.398438 4.839844 16.761719 5.199219 17.199219 5.199219zM17.199219 5.199219"/>
</svg>

<svg xmlns="http://www.w3.org/2000/svg" width="32" height="32" viewBox="0 0 24 24">
    <path d="M12 0C5.398 0 0 5.36 0 12s5.398 12 12 12 12-5.398 12-12S18.602 0 12 0zm0 23.2C5.84 23.2.8 18.16.8 12 .8 5.84 5.84.8 12 .8 18.16.8 23.2 5.84 23.2 12c0 6.16-5.04 11.2-11.2 11.2zm0 0"/>
    <path d="M12 4c-4.398 0-8 3.602-8 8 0 .441.04.879.121 1.281 0 .2.238.36.438.32.203 0 .363-.242.32-.44-.04-.36-.078-.763-.078-1.161C4.8 8.04 8.039 4.8 12 4.8c3.96 0 7.2 3.24 7.2 7.2s-3.24 7.2-7.2 7.2c-1.79 0-3.473-.626-4.797-1.845l2.25-2.25A3.978 3.978 0 0 0 12 16c2.2 0 4-1.8 4-4s-1.8-4-4-4-4 1.8-4 4c0 .238 0 .441.078.64 0 .2.242.36.442.32.199 0 .359-.241.32-.44-.04-.16-.04-.36-.04-.52 0-1.762 1.438-3.2 3.2-3.2 1.762 0 3.2 1.438 3.2 3.2 0 1.762-1.438 3.2-3.2 3.2a3.195 3.195 0 0 1-1.98-.657l1.164-1.168c.242.145.52.227.816.227.879 0 1.602-.723 1.602-1.602 0-.879-.723-1.602-1.602-1.602-.879 0-1.602.723-1.602 1.602 0 .297.082.574.227.816L9.16 14.281l-2.8 2.797-1.438 1.442a.385.385 0 0 0 0 .558c.078.082.16.121.277.121.121 0 .2-.039.281-.12l1.165-1.161A7.873 7.873 0 0 0 12 20c4.398 0 8-3.559 8-8 0-4.398-3.602-8-8-8zm0 7.2a.802.802 0 0 1 0 1.6.802.802 0 0 1-.523-.195l-.036-.046-.046-.036A.802.802 0 0 1 12 11.2zm0 0M4.398 7.602c0-.442-.359-.801-.796-.801-.442 0-.801.36-.801.8 0 .438.36.797.8.797a.8.8 0 0 0 .797-.796zm0 0"/>
    <path d="M15.2 15.602a.801.801 0 0 0 1.6 0 .802.802 0 0 0-1.6 0zm0 0M17.2 5.2c.44 0 .8-.36.8-.802a.801.801 0 0 0-1.602 0c0 .442.364.801.801.801zm0 0"/>
</svg>
